material/.icons/material/bow-tie.svg

<svg xmlns="http://www.w3.org/2000/svg" viewBox="0 0 24 24"><path d="M15 14l6 3V7l-6 3v4m-6 0l-6 3V7l6 3v4m1-4h4v4h-4v-4z"/></svg>

<?xml version="1.0" encoding="UTF-8"?><!DOCTYPE svg PUBLIC "-//W3C//DTD SVG 1.1//EN" "http://www.w3.org/Graphics/SVG/1.1/DTD/svg11.dtd"><svg xmlns="http://www.w3.org/2000/svg" xmlns:xlink="http://www.w3.org/1999/xlink" version="1.1" id="mdi-bow-tie" width="24" height="24" viewBox="0 0 24 24"><path d="M15,14L21,17V7L15,10V14M9,14L3,17V7L9,10V14M10,10H14V14H10V10Z" /></svg>
